icon-svg/twinkly-spritzer.svg

<svg xmlns="http://www.w3.org/2000/svg" fill="#44739e" viewBox="0 0 24 24"><path d="M21.637 12.132a.371.371 0 0 0-.358.221l-1.065-.053a.37.37 0 0 0-.677-.034l-1.07-.054a.37.37 0 0 0-.68-.035l-1.067-.054a.369.369 0 0 0-.683-.035l-1.064-.054a.369.369 0 0 0-.686-.034l-1.062-.054a.3.3 0 0 0-.025-.059.4.4 0 0 0 .013-.069l1.02-.277a.369.369 0 0 0 .671-.183l1.017-.277a.369.369 0 0 0 .673-.184l1.015-.276a.369.369 0 0 0 .676-.184l1.011-.276a.37.37 0 0 0 .68-.185l1.016-.276a.368.368 0 1 0-.069-.251l-1.029.28a.37.37 0 0 0-.654.178l-1.033.282a.371.371 0 0 0-.658.179l-1.03.281a.369.369 0 0 0-.66.18l-1.028.28a.37.37 0 0 0-.663.18l-1.025.279a.4.4 0 0 0-.04-.045.35.35 0 0 0-.008-.065l.886-.576a.369.369 0 0 0 .582-.379l.884-.575a.369.369 0 0 0 .585-.381l.881-.573a.369.369 0 0 0 .587-.382l.879-.572a.369.369 0 0 0 .589-.383l.883-.575a.369.369 0 1 0-.142-.218l-.894.582a.369.369 0 0 0-.568.369l-.9.584a.369.369 0 0 0-.57.371l-.9.583a.37.37 0 0 0-.573.373l-.893.581a.369.369 0 0 0-.575.374l-.891.579a.5.5 0 0 0-.045-.04.36.36 0 0 0-.03-.063l.66-.824a.369.369 0 0 0 .435-.542l.659-.822a.369.369 0 0 0 .437-.544l.657-.82a.369.369 0 0 0 .439-.546l.655-.818a.369.369 0 0 0 .44-.548l.659-.822a.369.369 0 1 0-.2-.163l-.667.832a.369.369 0 0 0-.423.528l-.67.835a.37.37 0 0 0-.426.532l-.668.832a.37.37 0 0 0-.428.534l-.666.83a.369.369 0 0 0-.429.536l-.665.828a.4.4 0 0 0-.07-.015.4.4 0 0 0-.054-.056l.359-.993a.368.368 0 0 0 .237-.653l.358-.99a.369.369 0 0 0 .237-.656l.357-.988a.369.369 0 0 0 .238-.659l.356-.985a.369.369 0 0 0 .239-.661l.358-.99a.37.37 0 1 0-.245-.089l-.363 1a.369.369 0 0 0-.23.636l-.364 1.007a.37.37 0 0 0-.231.64l-.363 1a.368.368 0 0 0-.232.642l-.362 1a.369.369 0 0 0-.233.646l-.361 1a.369.369 0 0 0-.235.648l-.094.261-.158-.227a.368.368 0 0 0-.311-.579 1.19 1.19 0 0 1 .498-.103 1.24 1.24 0 0 1 .2.017.44.44 0 0 0-.075-.038V9.735a.369.369 0 0 0 0-.7V7.982a.369.369 0 0 0 0-.7v-1.05a.368.368 0 0 0 0-.7V4.485a.369.369 0 0 0 0-.7V2.732a.369.369 0 1 0-.261 0v1.065a.369.369 0 0 0 0 .677v1.07a.37.37 0 0 0 0 .681v1.067a.369.369 0 0 0 0 .683V9.04a.369.369 0 0 0 0 .686v1.061a.4.4 0 0 0-.059.029.4.4 0 0 0-.07-.009l-.333-1a.369.369 0 0 0-.22-.659l-.332-1a.369.369 0 0 0-.22-.662l-.332-1a.369.369 0 0 0-.221-.664l-.331-.994a.369.369 0 0 0-.222-.667l-.333-1a.37.37 0 1 0-.247.082l.336 1.011a.369.369 0 0 0 .214.643l.341 1.023a.369.369 0 0 0 .215.646l.337 1.013a.369.369 0 0 0 .216.648l.336 1.01a.369.369 0 0 0 .217.651l.335 1.007-.032.03-.049.009-.6-.867a.37.37 0 0 0-.4-.571l-.6-.865a.369.369 0 0 0-.4-.573l-.6-.862a.369.369 0 0 0-.4-.575l-.6-.861a.369.369 0 0 0-.4-.577l-.6-.865a.369.369 0 1 0-.214.149l.608.875a.369.369 0 0 0 .386.556l.612.879a.369.369 0 0 0 .388.559l.609.877a.369.369 0 0 0 .391.561l.607.874a.369.369 0 0 0 .392.564l.606.872a.4.4 0 0 0-.025.043.4.4 0 0 0-.049.024l-.829-.655a.369.369 0 0 0-.545-.431l-.826-.654a.37.37 0 0 0-.548-.433l-.824-.652A.369.369 0 0 0 7 7.891l-.822-.65a.37.37 0 0 0-.552-.436L4.8 6.152a.37.37 0 1 0-.162.2l.836.661a.37.37 0 0 0 .531.421l.84.664a.37.37 0 0 0 .534.422l.838.663a.369.369 0 0 0 .536.424l.836.66a.369.369 0 0 0 .538.426l.833.659a.5.5 0 0 0-.012.051.5.5 0 0 0-.041.04l-.985-.382a.37.37 0 0 0-.649-.252l-.982-.382a.37.37 0 0 0-.651-.253l-.98-.38a.369.369 0 0 0-.653-.254l-.977-.379a.37.37 0 0 0-.656-.255l-.982-.381a.371.371 0 1 0-.1.242l.994.386a.37.37 0 0 0 .632.246l1 .388a.369.369 0 0 0 .634.246l1 .387a.37.37 0 0 0 .638.248l.993.385a.369.369 0 0 0 .64.249l.99.385a.35.35 0 0 0 .006.065.5.5 0 0 0-.035.063l-1.055-.054a.37.37 0 0 0-.7-.035l-1.052-.054a.37.37 0 0 0-.7-.036l-1.05-.053a.37.37 0 0 0-.7-.036L4.489 11.5a.37.37 0 0 0-.7-.036l-1.052-.053a.369.369 0 1 0-.013.26l1.065.054a.37.37 0 0 0 .677.035l1.07.054a.37.37 0 0 0 .68.035l1.064.051a.37.37 0 0 0 .683.035l1.064.054a.37.37 0 0 0 .686.035l1.062.054a.3.3 0 0 0 .025.058.4.4 0 0 0-.013.069l-1.02.278a.369.369 0 0 0-.671.183l-1.017.277a.369.369 0 0 0-.673.183l-1.015.274a.369.369 0 0 0-.676.184l-1.015.28a.369.369 0 0 0-.679.185l-1.016.276a.368.368 0 1 0 .069.252l1.032-.277a.369.369 0 0 0 .653-.178l1.034-.281a.37.37 0 0 0 .657-.179l1.031-.281a.369.369 0 0 0 .66-.18l1.028-.28a.37.37 0 0 0 .663-.18l1.025-.28a.3.3 0 0 0 .04.046.36.36 0 0 0 .008.065l-.886.576a.369.369 0 0 0-.582.379l-.884.575a.369.369 0 0 0-.585.38l-.881.574a.369.369 0 0 0-.587.382l-.879.571a.37.37 0 0 0-.59.384l-.882.574a.37.37 0 1 0 .142.219l.894-.582a.369.369 0 0 0 .568-.369l.9-.584a.37.37 0 0 0 .57-.372l.895-.582a.37.37 0 0 0 .574-.373l.892-.581a.369.369 0 0 0 .576-.374l.89-.58a.36.36 0 0 0 .056.033.37.37 0 0 0 .03.064l-.661.824a.369.369 0 0 0-.435.542l-.659.822a.369.369 0 0 0-.436.544l-.658.82a.369.369 0 0 0-.438.546l-.655.818a.369.369 0 0 0-.441.548l-.658.821a.371.371 0 1 0 .2.163l.667-.831a.369.369 0 0 0 .424-.528l.67-.836a.369.369 0 0 0 .426-.531l.668-.833a.369.369 0 0 0 .428-.533l.666-.83a.369.369 0 0 0 .429-.536l.665-.828a.33.33 0 0 0 .07.014.32.32 0 0 0 .053.057l-.359.993a.368.368 0 0 0-.236.653l-.358.99a.369.369 0 0 0-.237.656l-.357.988a.369.369 0 0 0-.238.659l-.357.985a.369.369 0 0 0-.239.661l-.357.99a.368.368 0 1 0 .245.088l.362-1a.368.368 0 0 0 .23-.636l.364-1.007a.37.37 0 0 0 .232-.64l.362-1a.369.369 0 0 0 .233-.643l.362-1a.369.369 0 0 0 .233-.646l.361-1a.369.369 0 0 0 .234-.648l.1-.262.158.227a.369.369 0 0 0 .312.58 1.19 1.19 0 0 1-.507.112 1.24 1.24 0 0 1-.2-.017.38.38 0 0 0 .075.038v1.056a.368.368 0 0 0 0 .694v1.053a.369.369 0 0 0 0 .7v1.05a.369.369 0 0 0 0 .7v1.047a.37.37 0 0 0 0 .7v1.052a.369.369 0 1 0 .261 0v-1.065a.369.369 0 0 0 0-.677v-1.07a.37.37 0 0 0 0-.681v-1.067a.369.369 0 0 0 0-.683v-1.065a.368.368 0 0 0 0-.686v-1.061a.5.5 0 0 0 .059-.029.4.4 0 0 0 .07.009l.333 1a.369.369 0 0 0 .22.659l.332 1a.369.369 0 0 0 .221.662l.332 1a.368.368 0 0 0 .221.664l.331.994a.369.369 0 0 0 .222.667l.332 1a.37.37 0 1 0 .248-.082l-.337-1.011a.369.369 0 0 0-.214-.643l-.345-1.027a.369.369 0 0 0-.215-.646l-.337-1.013a.369.369 0 0 0-.213-.641l-.336-1.01a.369.369 0 0 0-.217-.651l-.335-1.007.032-.03a.4.4 0 0 0 .049-.009l.6.867a.369.369 0 0 0 .4.571l.6.865a.369.369 0 0 0 .4.572l.6.863a.369.369 0 0 0 .4.575l.6.861a.369.369 0 0 0 .4.577l.6.864a.37.37 0 1 0 .215-.148l-.609-.875a.369.369 0 0 0-.386-.556l-.611-.88a.369.369 0 0 0-.389-.558l-.609-.877a.369.369 0 0 0-.39-.561l-.608-.875a.369.369 0 0 0-.392-.563l-.606-.872a.27.27 0 0 0 .025-.043.4.4 0 0 0 .049-.024l.829.655a.369.369 0 0 0 .545.431l.826.654a.37.37 0 0 0 .548.433l.824.652a.369.369 0 0 0 .55.434l.822.65a.37.37 0 0 0 .552.437l.825.653a.371.371 0 1 0 .163-.2L18.524 17a.369.369 0 0 0-.531-.42l-.84-.664a.37.37 0 0 0-.534-.423l-.838-.662a.369.369 0 0 0-.536-.424l-.835-.661a.37.37 0 0 0-.539-.426l-.833-.659a.4.4 0 0 0 .012-.05.5.5 0 0 0 .042-.04l.985.382a.369.369 0 0 0 .648.252l.982.381a.37.37 0 0 0 .651.253l.98.381a.369.369 0 0 0 .653.254l.978.379a.37.37 0 0 0 .656.255l.981.381a.37.37 0 1 0 .095-.243l-.994-.386a.37.37 0 0 0-.632-.245l-1-.388a.37.37 0 0 0-.635-.247l-1-.386a.37.37 0 0 0-.638-.248l-.993-.385a.369.369 0 0 0-.64-.249l-.99-.385a.37.37 0 0 0-.006-.066.4.4 0 0 0 .035-.062l1.055.054a.37.37 0 0 0 .7.035l1.052.054a.37.37 0 0 0 .7.035l1.05.054a.369.369 0 0 0 .7.035l1.047.054a.37.37 0 0 0 .7.035l1.052.054a.369.369 0 1 0 .371-.481zM10.8 12.123c0-.037-.006-.074-.006-.112a1.2 1.2 0 0 1 .362-.858.369.369 0 0 0 .43.5l.2.284-.333.09a.37.37 0 0 0-.651.1zm.893.341a.369.369 0 0 0-.293.589 1.2 1.2 0 0 1-.493-.537.368.368 0 0 0 .611-.24l.27-.073zm.605-.906a.369.369 0 0 0 .294-.589 1.207 1.207 0 0 1 .493.536.372.372 0 0 0-.34-.079.367.367 0 0 0-.271.32l-.27.073zm.538 1.31a.368.368 0 0 0-.43-.5l-.2-.284.339-.084a.369.369 0 0 0 .651-.1c0 .037.006.074.006.112a1.193 1.193 0 0 1-.362.856zm-7.211 7.905a.11.11 0 0 1-.01.085.113.113 0 0 1-.068.053.114.114 0 0 1-.081-.012.113.113 0 0 1-.053-.068.113.113 0 0 0 .053.068.114.114 0 0 0 .081.012.113.113 0 0 0 .068-.053.11.11 0 0 0 .01-.085"/></svg>

<?xml version="1.0" encoding="UTF-8"?>
<svg width="24px" fill="#44739e" height="24px" viewBox="0 0 24 24" version="1.1" xmlns="http://www.w3.org/2000/svg" xmlns:xlink="http://www.w3.org/1999/xlink">
            <path d="m 21.637,12.132 a 0.371,0.371 0 0 0 -0.358,0.221 L 20.214,12.3 a 0.37,0.37 0 0 0 -0.677,-0.034 l -1.07,-0.054 a 0.37,0.37 0 0 0 -0.68,-0.035 L 16.72,12.123 A 0.369,0.369 0 0 0 16.037,12.088 L 14.973,12.034 A 0.369,0.369 0 0 0 14.287,12 L 13.225,11.946 A 0.307,0.307 0 0 0 13.2,11.887 0.383,0.383 0 0 0 13.213,11.818 l 1.02,-0.277 a 0.369,0.369 0 0 0 0.671,-0.183 l 1.017,-0.277 a 0.369,0.369 0 0 0 0.673,-0.184 l 1.015,-0.276 a 0.369,0.369 0 0 0 0.676,-0.184 l 1.011,-0.276 a 0.37,0.37 0 0 0 0.68,-0.185 L 20.992,9.7 A 0.368,0.368 0 1 0 20.923,9.449 l -1.029,0.28 A 0.37,0.37 0 0 0 19.24,9.907 l -1.033,0.282 a 0.371,0.371 0 0 0 -0.658,0.179 l -1.03,0.281 a 0.369,0.369 0 0 0 -0.66,0.18 l -1.028,0.28 a 0.37,0.37 0 0 0 -0.663,0.18 l -1.025,0.279 a 0.428,0.428 0 0 0 -0.04,-0.045 0.35,0.35 0 0 0 -0.008,-0.065 l 0.886,-0.576 a 0.369,0.369 0 0 0 0.582,-0.379 L 15.447,9.928 A 0.369,0.369 0 0 0 16.032,9.547 L 16.913,8.974 A 0.369,0.369 0 0 0 17.5,8.592 L 18.379,8.02 A 0.369,0.369 0 0 0 18.968,7.637 L 19.851,7.062 A 0.369,0.369 0 1 0 19.709,6.844 l -0.894,0.582 a 0.369,0.369 0 0 0 -0.568,0.369 l -0.9,0.584 a 0.369,0.369 0 0 0 -0.57,0.371 l -0.9,0.583 a 0.37,0.37 0 0 0 -0.573,0.373 l -0.893,0.581 a 0.369,0.369 0 0 0 -0.575,0.374 L 12.945,11.24 A 0.5,0.5 0 0 0 12.9,11.2 0.364,0.364 0 0 0 12.87,11.137 l 0.66,-0.824 a 0.369,0.369 0 0 0 0.435,-0.542 l 0.659,-0.822 a 0.369,0.369 0 0 0 0.437,-0.544 l 0.657,-0.82 a 0.369,0.369 0 0 0 0.439,-0.546 l 0.655,-0.818 a 0.369,0.369 0 0 0 0.44,-0.548 l 0.659,-0.822 a 0.369,0.369 0 1 0 -0.2,-0.163 L 17.044,5.52 a 0.369,0.369 0 0 0 -0.423,0.528 l -0.67,0.835 a 0.37,0.37 0 0 0 -0.426,0.532 l -0.668,0.832 a 0.37,0.37 0 0 0 -0.428,0.534 l -0.666,0.83 a 0.369,0.369 0 0 0 -0.429,0.536 l -0.665,0.828 a 0.415,0.415 0 0 0 -0.07,-0.015 0.407,0.407 0 0 0 -0.054,-0.056 l 0.359,-0.993 a 0.368,0.368 0 0 0 0.237,-0.653 l 0.358,-0.99 A 0.369,0.369 0 0 0 13.736,7.612 L 14.093,6.624 A 0.369,0.369 0 0 0 14.331,5.965 L 14.687,4.98 a 0.369,0.369 0 0 0 0.239,-0.661 l 0.358,-0.99 A 0.37,0.37 0 1 0 15.039,3.24 l -0.363,1 a 0.369,0.369 0 0 0 -0.23,0.636 l -0.364,1.007 a 0.37,0.37 0 0 0 -0.231,0.64 l -0.363,1 a 0.368,0.368 0 0 0 -0.232,0.642 l -0.362,1 a 0.369,0.369 0 0 0 -0.233,0.646 l -0.361,1 a 0.369,0.369 0 0 0 -0.235,0.648 L 11.971,11.72 11.813,11.493 A 0.368,0.368 0 0 0 11.502,10.914 1.19,1.19 0 0 1 12,10.811 1.236,1.236 0 0 1 12.2,10.828 0.44,0.44 0 0 0 12.125,10.79 V 9.735 a 0.369,0.369 0 0 0 0,-0.7 V 7.982 a 0.369,0.369 0 0 0 0,-0.7 v -1.05 a 0.368,0.368 0 0 0 0,-0.7 V 4.485 a 0.369,0.369 0 0 0 0,-0.7 V 2.732 a 0.369,0.369 0 1 0 -0.261,0 v 1.065 a 0.369,0.369 0 0 0 0,0.677 v 1.07 a 0.37,0.37 0 0 0 0,0.681 v 1.067 a 0.369,0.369 0 0 0 0,0.683 V 9.04 a 0.369,0.369 0 0 0 0,0.686 v 1.061 a 0.4,0.4 0 0 0 -0.059,0.029 0.394,0.394 0 0 0 -0.07,-0.009 l -0.333,-1 a 0.369,0.369 0 0 0 -0.22,-0.659 l -0.332,-1 A 0.369,0.369 0 0 0 10.63,7.486 l -0.332,-1 A 0.369,0.369 0 0 0 10.077,5.822 L 9.746,4.828 A 0.369,0.369 0 0 0 9.524,4.161 l -0.333,-1 A 0.37,0.37 0 1 0 8.944,3.243 L 9.28,4.254 A 0.369,0.369 0 0 0 9.494,4.897 L 9.835,5.92 a 0.369,0.369 0 0 0 0.215,0.646 l 0.337,1.013 a 0.369,0.369 0 0 0 0.216,0.648 l 0.336,1.01 a 0.369,0.369 0 0 0 0.217,0.651 l 0.335,1.007 -0.032,0.03 -0.049,0.009 -0.6,-0.867 A 0.37,0.37 0 0 0 10.41,9.496 L 9.81,8.631 A 0.369,0.369 0 0 0 9.41,8.058 L 8.81,7.196 A 0.369,0.369 0 0 0 8.41,6.621 L 7.81,5.76 A 0.369,0.369 0 0 0 7.41,5.183 L 6.81,4.318 A 0.369,0.369 0 1 0 6.596,4.467 L 7.204,5.342 A 0.369,0.369 0 0 0 7.59,5.898 L 8.202,6.777 A 0.369,0.369 0 0 0 8.59,7.336 L 9.199,8.213 A 0.369,0.369 0 0 0 9.59,8.774 l 0.607,0.874 a 0.369,0.369 0 0 0 0.392,0.564 l 0.606,0.872 a 0.37,0.37 0 0 0 -0.025,0.043 0.444,0.444 0 0 0 -0.049,0.024 L 10.292,10.496 A 0.369,0.369 0 0 0 9.747,10.065 L 8.921,9.411 A 0.37,0.37 0 0 0 8.373,8.978 L 7.549,8.326 A 0.369,0.369 0 0 0 7,7.891 L 6.178,7.241 A 0.37,0.37 0 0 0 5.626,6.805 L 4.8,6.152 a 0.37,0.37 0 1 0 -0.162,0.2 l 0.836,0.661 a 0.37,0.37 0 0 0 0.531,0.421 l 0.84,0.664 A 0.37,0.37 0 0 0 7.379,8.52 l 0.838,0.663 a 0.369,0.369 0 0 0 0.536,0.424 l 0.836,0.66 a 0.369,0.369 0 0 0 0.538,0.426 l 0.833,0.659 a 0.47,0.47 0 0 0 -0.012,0.051 0.514,0.514 0 0 0 -0.041,0.04 L 9.922,11.061 A 0.37,0.37 0 0 0 9.273,10.809 L 8.291,10.427 A 0.37,0.37 0 0 0 7.64,10.174 L 6.66,9.794 A 0.369,0.369 0 0 0 6.007,9.54 L 5.03,9.161 A 0.37,0.37 0 0 0 4.374,8.906 L 3.392,8.525 a 0.371,0.371 0 1 0 -0.1,0.242 l 0.994,0.386 a 0.37,0.37 0 0 0 0.632,0.246 l 1,0.388 a 0.369,0.369 0 0 0 0.634,0.246 l 1,0.387 a 0.37,0.37 0 0 0 0.638,0.248 l 0.993,0.385 a 0.369,0.369 0 0 0 0.64,0.249 l 0.99,0.385 a 0.349,0.349 0 0 0 0.006,0.065 0.482,0.482 0 0 0 -0.035,0.063 L 9.729,11.761 a 0.37,0.37 0 0 0 -0.7,-0.035 L 7.977,11.672 a 0.37,0.37 0 0 0 -0.7,-0.036 l -1.05,-0.053 a 0.37,0.37 0 0 0 -0.7,-0.036 L 4.489,11.5 a 0.37,0.37 0 0 0 -0.7,-0.036 L 2.737,11.411 a 0.369,0.369 0 1 0 -0.013,0.26 l 1.065,0.054 a 0.37,0.37 0 0 0 0.677,0.035 l 1.07,0.054 a 0.37,0.37 0 0 0 0.68,0.035 L 7.28,11.9 a 0.37,0.37 0 0 0 0.683,0.035 l 1.064,0.054 a 0.37,0.37 0 0 0 0.686,0.035 l 1.062,0.054 a 0.3,0.3 0 0 0 0.025,0.058 0.419,0.419 0 0 0 -0.013,0.069 l -1.02,0.278 A 0.369,0.369 0 0 0 9.096,12.666 L 8.079,12.943 A 0.369,0.369 0 0 0 7.406,13.126 L 6.391,13.4 A 0.369,0.369 0 0 0 5.715,13.584 L 4.7,13.864 a 0.369,0.369 0 0 0 -0.679,0.185 l -1.016,0.276 a 0.368,0.368 0 1 0 0.069,0.252 L 4.106,14.3 A 0.369,0.369 0 0 0 4.759,14.122 L 5.793,13.841 A 0.37,0.37 0 0 0 6.45,13.662 l 1.031,-0.281 a 0.369,0.369 0 0 0 0.66,-0.18 l 1.028,-0.28 a 0.37,0.37 0 0 0 0.663,-0.18 l 1.025,-0.28 a 0.293,0.293 0 0 0 0.04,0.046 0.361,0.361 0 0 0 0.008,0.065 l -0.886,0.576 a 0.369,0.369 0 0 0 -0.582,0.379 l -0.884,0.575 a 0.369,0.369 0 0 0 -0.585,0.38 L 7.087,15.056 A 0.369,0.369 0 0 0 6.5,15.438 l -0.879,0.571 a 0.37,0.37 0 0 0 -0.59,0.384 l -0.882,0.574 a 0.37,0.37 0 1 0 0.142,0.219 l 0.894,-0.582 a 0.369,0.369 0 0 0 0.568,-0.369 l 0.9,-0.584 a 0.37,0.37 0 0 0 0.57,-0.372 l 0.895,-0.582 a 0.37,0.37 0 0 0 0.574,-0.373 l 0.892,-0.581 a 0.369,0.369 0 0 0 0.576,-0.374 l 0.89,-0.58 a 0.357,0.357 0 0 0 0.056,0.033 0.373,0.373 0 0 0 0.03,0.064 l -0.661,0.824 a 0.369,0.369 0 0 0 -0.435,0.542 l -0.659,0.822 a 0.369,0.369 0 0 0 -0.436,0.544 l -0.658,0.82 A 0.369,0.369 0 0 0 7.849,16.984 L 7.194,17.802 A 0.369,0.369 0 0 0 6.753,18.35 l -0.658,0.821 a 0.371,0.371 0 1 0 0.2,0.163 l 0.667,-0.831 a 0.369,0.369 0 0 0 0.424,-0.528 l 0.67,-0.836 A 0.369,0.369 0 0 0 8.482,16.608 L 9.15,15.775 a 0.369,0.369 0 0 0 0.428,-0.533 l 0.666,-0.83 a 0.369,0.369 0 0 0 0.429,-0.536 l 0.665,-0.828 a 0.334,0.334 0 0 0 0.07,0.014 0.317,0.317 0 0 0 0.053,0.057 l -0.359,0.993 a 0.368,0.368 0 0 0 -0.236,0.653 l -0.358,0.99 a 0.369,0.369 0 0 0 -0.237,0.656 L 9.914,17.399 A 0.369,0.369 0 0 0 9.676,18.058 L 9.319,19.043 A 0.369,0.369 0 0 0 9.08,19.704 l -0.357,0.99 a 0.368,0.368 0 1 0 0.245,0.088 l 0.362,-1 a 0.368,0.368 0 0 0 0.23,-0.636 l 0.364,-1.007 a 0.37,0.37 0 0 0 0.232,-0.64 l 0.362,-1 a 0.369,0.369 0 0 0 0.233,-0.643 l 0.362,-1 a 0.369,0.369 0 0 0 0.233,-0.646 l 0.361,-1 a 0.369,0.369 0 0 0 0.234,-0.648 l 0.1,-0.262 0.158,0.227 a 0.369,0.369 0 0 0 0.312,0.58 1.194,1.194 0 0 1 -0.507,0.112 1.236,1.236 0 0 1 -0.2,-0.017 0.377,0.377 0 0 0 0.075,0.038 v 1.056 a 0.368,0.368 0 0 0 0,0.694 v 1.053 a 0.369,0.369 0 0 0 0,0.7 v 1.05 a 0.369,0.369 0 0 0 0,0.7 v 1.047 a 0.37,0.37 0 0 0 0,0.7 v 1.052 a 0.369,0.369 0 1 0 0.261,0 v -1.065 a 0.369,0.369 0 0 0 0,-0.677 v -1.07 a 0.37,0.37 0 0 0 0,-0.681 v -1.067 a 0.369,0.369 0 0 0 0,-0.683 v -1.065 a 0.368,0.368 0 0 0 0,-0.686 v -1.061 a 0.46,0.46 0 0 0 0.059,-0.029 0.406,0.406 0 0 0 0.07,0.009 l 0.333,1 a 0.369,0.369 0 0 0 0.22,0.659 l 0.332,1 a 0.369,0.369 0 0 0 0.221,0.662 l 0.332,1 a 0.368,0.368 0 0 0 0.221,0.664 l 0.331,0.994 a 0.369,0.369 0 0 0 0.222,0.667 l 0.332,1 a 0.37,0.37 0 1 0 0.248,-0.082 L 14.724,19.77 A 0.369,0.369 0 0 0 14.51,19.127 L 14.165,18.1 A 0.369,0.369 0 0 0 13.95,17.454 L 13.613,16.441 A 0.369,0.369 0 0 0 13.4,15.8 l -0.336,-1.01 a 0.369,0.369 0 0 0 -0.217,-0.651 l -0.335,-1.007 0.032,-0.03 a 0.421,0.421 0 0 0 0.049,-0.009 l 0.6,0.867 a 0.369,0.369 0 0 0 0.4,0.571 l 0.6,0.865 a 0.369,0.369 0 0 0 0.4,0.572 l 0.6,0.863 a 0.369,0.369 0 0 0 0.4,0.575 l 0.6,0.861 a 0.369,0.369 0 0 0 0.4,0.577 l 0.6,0.864 a 0.37,0.37 0 1 0 0.215,-0.148 l -0.609,-0.875 a 0.369,0.369 0 0 0 -0.386,-0.556 l -0.611,-0.88 a 0.369,0.369 0 0 0 -0.389,-0.558 l -0.609,-0.877 a 0.369,0.369 0 0 0 -0.39,-0.561 l -0.608,-0.875 a 0.369,0.369 0 0 0 -0.392,-0.563 l -0.606,-0.872 a 0.267,0.267 0 0 0 0.025,-0.043 0.444,0.444 0 0 0 0.049,-0.024 l 0.829,0.655 a 0.369,0.369 0 0 0 0.545,0.431 l 0.826,0.654 a 0.37,0.37 0 0 0 0.548,0.433 l 0.824,0.652 a 0.369,0.369 0 0 0 0.55,0.434 l 0.822,0.65 a 0.37,0.37 0 0 0 0.552,0.437 l 0.825,0.653 a 0.371,0.371 0 1 0 0.163,-0.2 L 18.524,17 a 0.369,0.369 0 0 0 -0.531,-0.42 l -0.84,-0.664 A 0.37,0.37 0 0 0 16.619,15.493 L 15.781,14.831 A 0.369,0.369 0 0 0 15.245,14.407 L 14.41,13.746 A 0.37,0.37 0 0 0 13.871,13.32 l -0.833,-0.659 a 0.405,0.405 0 0 0 0.012,-0.05 0.533,0.533 0 0 0 0.042,-0.04 l 0.985,0.382 a 0.369,0.369 0 0 0 0.648,0.252 l 0.982,0.381 a 0.37,0.37 0 0 0 0.651,0.253 l 0.98,0.381 a 0.369,0.369 0 0 0 0.653,0.254 l 0.978,0.379 a 0.37,0.37 0 0 0 0.656,0.255 l 0.981,0.381 a 0.37,0.37 0 1 0 0.095,-0.243 L 19.707,14.86 a 0.37,0.37 0 0 0 -0.632,-0.245 l -1,-0.388 A 0.37,0.37 0 0 0 17.44,13.98 l -1,-0.386 a 0.37,0.37 0 0 0 -0.638,-0.248 l -0.993,-0.385 a 0.369,0.369 0 0 0 -0.64,-0.249 l -0.99,-0.385 a 0.368,0.368 0 0 0 -0.006,-0.066 0.414,0.414 0 0 0 0.035,-0.062 l 1.055,0.054 a 0.37,0.37 0 0 0 0.7,0.035 l 1.052,0.054 a 0.37,0.37 0 0 0 0.7,0.035 l 1.05,0.054 a 0.369,0.369 0 0 0 0.7,0.035 l 1.047,0.054 a 0.37,0.37 0 0 0 0.7,0.035 l 1.052,0.054 a 0.369,0.369 0 1 0 0.371,-0.481 z M 10.8,12.123 c 0,-0.037 -0.006,-0.074 -0.006,-0.112 a 1.2,1.2 0 0 1 0.362,-0.858 0.369,0.369 0 0 0 0.43,0.5 l 0.2,0.284 -0.333,0.09 a 0.37,0.37 0 0 0 -0.651,0.1 z m 0.893,0.341 a 0.369,0.369 0 0 0 -0.293,0.589 1.2,1.2 0 0 1 -0.493,-0.537 0.368,0.368 0 0 0 0.611,-0.24 l 0.27,-0.073 z m 0.605,-0.906 a 0.369,0.369 0 0 0 0.294,-0.589 1.207,1.207 0 0 1 0.493,0.536 0.372,0.372 0 0 0 -0.34,-0.079 0.367,0.367 0 0 0 -0.271,0.32 l -0.27,0.073 z m 0.538,1.31 a 0.368,0.368 0 0 0 -0.43,-0.5 L 12.206,12.084 12.545,12 a 0.369,0.369 0 0 0 0.651,-0.1 c 0,0.037 0.006,0.074 0.006,0.112 a 1.193,1.193 0 0 1 -0.362,0.856 z m -7.211,7.905 a 0.11,0.11 0 0 1 -0.01,0.085 0.113,0.113 0 0 1 -0.068,0.053 v 0 A 0.114,0.114 0 0 1 5.466,20.899 0.113,0.113 0 0 1 5.413,20.831 v 0 a 0.113,0.113 0 0 0 0.053,0.068 0.114,0.114 0 0 0 0.081,0.012 v 0 a 0.113,0.113 0 0 0 0.068,-0.053 0.11,0.11 0 0 0 0.01,-0.085 z"/>

</svg>
